X:460
T: "Schlachtlied"
N: Z1140
O: Europa, Mitteleuropa, Deutschland, Herzogtum Berg
R: Vaterland und Wehr
M: 3/4
L: 1/8
K: F
FG | A3ABA | AGG2
GA | B3BcB | BAA2
cc | c3AdB | G2z2
FA | c3cdc | BABd
cB | AGAcBA | Gcc2
GG | G3ABc | A4

@@@ Tune index: 10218
